X:79
T:Styggen p\aa L\aaven
C:anon.
O:Norway
R:Reinlender
A:Nord Trondelag
C:Ringlender i Hilmartrad. e. O. Okas\aas
M:2/4
L:1/8
Q:1/4=160
K:G
% %rightmargin 11.5cm
"Intro"\
[V:1] | f2 f>e d>c B>A | G2 G2 G2 z2 |:
[V:2] | d2 d2  c2  c2  | B2 B2 B2 z2 |:
% %rightmargin 2.78cm
% %staves 1 2
%P:A
[V:1]"G"D2 G>B d2 d2|"D7"c>B A>B c2 c2|"D7"D2 F>A c2 c2|"G"B>A G>A B2 B2|
[V:2]D2 D>G B2B2 | A>G F>G A2 A2 | D2 D>F A2 F2 | G>D B,>D G2 G2|
[V:1]"G"D2 G>B d2 d2|"D7"c>B A>B c2 c2|"D7"d2 f>e d>c B>A|"G"G2 G2 G2 z2:|
[V:2]D2 D>G B2B2 | A>G F>G A2 A2 | F2 A2 F2 A2 | G2 G2 G4 :|
%P:B
[V:1]|:"G"D2 B2 DB DB|"D7"B2 A2 A>^G A2|"D7"A>B c2 c2 B>A|"G"A>G B>d g4|
[V:2]|:B2 d2 Bd Bd | d2 c2 c>B c2 | c>d e2 e2 d>c | c>B B>A G4|
[V:1]"G"D2 B2 DB DB|"D7"B2 A2 A>^G A2|"D7"d2 f>e d>c B>A|"G"G2 G2 G2 z2:|
[V:2]B2 d2 Bd Bd | d2 c2 c>B c2 | d2 d2 c2 c2 | B2 B2 B2 z2:|

